svg/24/logo-tiktok.svg

<svg width="24" height="24" viewBox="0 0 24 24" fill="currentColor" xmlns="http://www.w3.org/2000/svg"><path d="M18.3946 6.00888C17.3174 5.30628 16.5396 4.1826 16.2972 2.87257C16.2448 2.58939 16.216 2.2982 16.216 2H12.7775L12.7718 15.7801C12.7141 17.3232 11.4441 18.5618 9.88698 18.5618C9.40311 18.5618 8.94729 18.4409 8.54624 18.2295C7.62625 17.7453 6.99678 16.7809 6.99678 15.6713C6.99678 14.0774 8.29345 12.7807 9.88698 12.7807C10.1845 12.7807 10.4697 12.8298 10.7399 12.9143V9.40399C10.4604 9.36593 10.1765 9.34222 9.88698 9.34222C6.3977 9.34255 3.55859 12.1817 3.55859 15.6713C3.55859 17.8125 4.62852 19.7072 6.26046 20.8529C7.28831 21.5746 8.53889 22 9.88732 22C13.3769 22 16.216 19.1609 16.216 15.6713V8.6837C17.5645 9.65177 19.2168 10.2221 20.9997 10.2221V6.78361C20.0393 6.78361 19.1446 6.4981 18.3946 6.00888Z"/></svg>

<svg xmlns="http://www.w3.org/2000/svg" width="24" height="24" fill="currentColor" viewBox="0 0 24 24">
  <path d="M18.395 6.009A4.793 4.793 0 0 1 16.216 2h-3.439l-.005 13.78a2.892 2.892 0 0 1-2.885 2.782 2.892 2.892 0 0 1-2.89-2.89 2.894 2.894 0 0 1 2.89-2.891c.297 0 .583.049.853.133v-3.51a6.308 6.308 0 0 0-.853-.062 6.336 6.336 0 0 0-6.328 6.33 6.324 6.324 0 0 0 2.701 5.18A6.291 6.291 0 0 0 9.887 22c3.49 0 6.329-2.84 6.329-6.329V8.684c1.348.968 3 1.538 4.784 1.538V6.784c-.96 0-1.855-.286-2.605-.775Z"/>
</svg>
